X:212
T: DER LENZ IST ANGEKOMMEN
N: F0360
O: Europa, Mitteleuropa, Deutschland
R: Jugend - Lied, Jahreszeiten, Fruehling
M: 6/8
L: 1/8
K: Bb
F | B2cd2e | f3d2
f | f2ed2c | d3Bz
c | c2ccBG | A2dc2
c | c2ccBG | A2dc2
F | B2cd2e | f2f
fed | c3cdc | B2z3

@@@ Tune index: 5643
